X:95
T: Raheen #1
M: 4/4
L: 1/8
S: Patrick Street
R: reel
D: "Live from Patrick Street"
Z: "Barney" [via IRTRAD]
K: G
AB | cABG A3 B | cABG AGED | G3 A BABc  | dBGB d3 B |
cABG A3 B | cABG AGED | Aeef gage | dBGB A2 :|
AB | eaab a2 ag | edef gddd | edef g2 gf | edef gedf |
eaab a2 ag | edef gddd | edef gage | dBGB A2 :|
